.local/share/icons/Gruvbox-Plus-Dark/apps/16/xampp.svg

<svg width="16" height="16" version="1.1" xmlns="http://www.w3.org/2000/svg">
  <defs>
    <style id="current-color-scheme" type="text/css">.ColorScheme-Text { color:#ebdbb2; } .ColorScheme-Highlight { color:#458588; }</style>
  </defs>
  <path class="ColorScheme-Text" d="m11.87 1.262c-1.773 0-3.286 1.139-3.871 2.74-0.547-1.513-2.066-2.6-3.854-2.6-2.249 0-4.072 1.722-4.072 3.846 0 0.879 0.3119 1.69 0.8379 2.338-0.571 0.734-0.9121 1.669-0.9121 2.688 0 2.373 1.847 4.297 4.125 4.297 1.747 0 3.24-1.131 3.84-2.729 0.541 1.687 2.036 2.896 3.795 2.896 2.216 0 4.012-1.923 4.012-4.295 0-0.873-0.2421-1.685-0.6621-2.361 0.559-0.717 0.8906-1.623 0.8906-2.609 0-2.326-1.849-4.211-4.129-4.211zm-7.447 2.646c0.824 0 1.49 0.6454 1.49 1.441-1.91e-4 -4.96e-4 -2e-3 1.436-2e-3 1.436s-1.055 0.0019-1.488 0.0019c-0.823 0-1.492-0.6435-1.492-1.438 0-0.796 0.6692-1.441 1.492-1.441zm7.504 0.1113h2e-3c0.338-6e-3 0.6623 0.1262 0.9023 0.3652 0.239 0.239 0.3722 0.5643 0.3672 0.9023 0 1-0.1497 1.958-0.6777 2.688 0.115 0.058 0.2215 0.1355 0.3145 0.2285 0.24 0.239 0.3722 0.5643 0.3672 0.9023v1.471c6e-3 0.451-0.2321 0.8707-0.6211 1.098-0.39 0.227-0.8698 0.227-1.26 0-0.389-0.227-0.6271-0.6467-0.6211-1.098v-1.43c-0.627 0.158-1.325 0.1836-2.107 0.1836-1.33 0-2.362 0.02406-2.719 0.1641-0.178 0.07-0.1985 0.0868-0.2695 0.2168s-0.1699 0.4432-0.1699 1.035c6e-3 0.45-0.2311 0.8707-0.6211 1.098-0.389 0.227-0.8708 0.227-1.26 0-0.39-0.227-0.6271-0.6477-0.6211-1.098 0-0.854 0.1275-1.592 0.4785-2.234 0.352-0.641 0.9507-1.114 1.551-1.35 1.201-0.471 2.373-0.332 3.631-0.332 1.21 0 1.758-0.1933 1.861-0.2773s0.2422-0.2896 0.2422-1.266c-9e-3 -0.689 0.5415-1.257 1.23-1.268z" fill="currentColor"/>
</svg>

<svg xmlns="http://www.w3.org/2000/svg" style="isolation:isolate" width="16" height="16" viewBox="0 0 16 16">
 <defs>
  <style id="current-color-scheme" type="text/css">
   .ColorScheme-Text { color:#ebdbb2; } .ColorScheme-Highlight { color:#458588; }
  </style>
  <linearGradient id="arrongin" x1="0%" x2="0%" y1="0%" y2="100%">
   <stop offset="0%" style="stop-color:#d79921; stop-opacity:1"/>
   <stop offset="100%" style="stop-color:#b57614; stop-opacity:1"/>
  </linearGradient>
  <linearGradient id="aurora" x1="0%" x2="0%" y1="0%" y2="100%">
   <stop offset="0%" style="stop-color:#83a598; stop-opacity:1"/>
   <stop offset="100%" style="stop-color:#b16286; stop-opacity:1"/>
  </linearGradient>
  <linearGradient id="fitdance" x1="0%" x2="0%" y1="0%" y2="100%">
   <stop offset="0%" style="stop-color:#8ec07c; stop-opacity:1"/>
   <stop offset="100%" style="stop-color:#458588; stop-opacity:1"/>
  </linearGradient>
  <linearGradient id="oomox" x1="0%" x2="0%" y1="0%" y2="100%">
   <stop offset="0%" style="stop-color:#458588; stop-opacity:1"/>
   <stop offset="100%" style="stop-color:#928374; stop-opacity:1"/>
  </linearGradient>
  <linearGradient id="rainblue" x1="0%" x2="0%" y1="0%" y2="100%">
   <stop offset="0%" style="stop-color:#b8bb26; stop-opacity:1"/>
   <stop offset="100%" style="stop-color:#076678; stop-opacity:1"/>
  </linearGradient>
  <linearGradient id="sunrise" x1="0%" x2="0%" y1="0%" y2="100%">
   <stop offset="0%" style="stop-color: #fe8019; stop-opacity:1"/>
   <stop offset="100%" style="stop-color: #fabd2f; stop-opacity:1"/>
  </linearGradient>
  <linearGradient id="telinkrin" x1="0%" x2="0%" y1="0%" y2="100%">
   <stop offset="0%" style="stop-color: #83a598; stop-opacity:1"/>
   <stop offset="100%" style="stop-color: #83a598; stop-opacity:1"/>
  </linearGradient>
  <linearGradient id="60spsycho" x1="0%" x2="0%" y1="0%" y2="100%">
   <stop offset="0%" style="stop-color: #fb4934; stop-opacity:1"/>
   <stop offset="25%" style="stop-color: #fabd2f; stop-opacity:1"/>
   <stop offset="50%" style="stop-color: #fe8019; stop-opacity:1"/>
   <stop offset="100%" style="stop-color: #689d6a; stop-opacity:1"/>
  </linearGradient>
  <linearGradient id="90ssummer" x1="0%" x2="0%" y1="0%" y2="100%">
   <stop offset="0%" style="stop-color: #b16286; stop-opacity:1"/>
   <stop offset="20%" style="stop-color: #8ec07c; stop-opacity:1"/>
   <stop offset="50%" style="stop-color: #fabd2f; stop-opacity:1"/>
   <stop offset="100%" style="stop-color: #458588; stop-opacity:1"/>
  </linearGradient>
  <linearGradient id="cyberneon" x1="0%" x2="0%" y1="0%" y2="100%">
    <stop offset="0" style="stop-color:#83a598; stop-opacity:1"/>
    <stop offset="1" style="stop-color:#b16286; stop-opacity:1"/>
  </linearGradient>
 </defs>
 <path style="fill:currentColor" class="ColorScheme-Text" fill-rule="evenodd" d="M 10.702 9.146 C 10.075 9.304 9.375 9.331 8.593 9.331 C 7.263 9.331 6.233 9.355 5.876 9.495 C 5.698 9.565 5.676 9.58 5.605 9.71 C 5.534 9.84 5.435 10.154 5.435 10.746 C 5.441 11.196 5.204 11.616 4.814 11.843 C 4.425 12.07 3.943 12.07 3.554 11.843 C 3.164 11.616 2.927 11.196 2.933 10.746 C 2.933 9.892 3.061 9.153 3.412 8.511 C 3.764 7.87 4.362 7.399 4.962 7.163 C 6.163 6.692 7.335 6.83 8.593 6.83 C 9.803 6.83 10.352 6.636 10.455 6.552 C 10.558 6.468 10.698 6.263 10.698 5.287 C 10.689 4.598 11.239 4.03 11.928 4.019 L 11.929 4.019 C 12.267 4.013 12.593 4.145 12.833 4.384 C 13.072 4.623 13.205 4.949 13.2 5.287 C 13.2 6.287 13.049 7.246 12.521 7.975 C 12.636 8.033 12.743 8.11 12.836 8.203 C 13.076 8.442 13.208 8.768 13.203 9.106 L 13.203 10.576 C 13.209 11.027 12.972 11.446 12.583 11.673 C 12.193 11.9 11.712 11.9 11.322 11.673 C 10.933 11.446 10.696 11.027 10.702 10.576 L 10.702 9.146 L 10.702 9.146 L 10.702 9.146 Z M 7.965 11.841 C 7.365 13.439 5.872 14.57 4.125 14.57 C 1.847 14.57 0 12.647 0 10.274 C 0 9.255 0.341 8.319 0.912 7.585 C 0.386 6.937 0.074 6.127 0.074 5.248 C 0.074 3.124 1.898 1.402 4.147 1.402 C 5.935 1.402 7.453 2.489 8 4.002 C 8.585 2.401 10.098 1.261 11.871 1.261 C 14.151 1.261 16 3.147 16 5.473 L 16 5.473 C 16 6.459 15.668 7.366 15.109 8.083 C 15.529 8.759 15.772 9.57 15.772 10.443 L 15.772 10.443 C 15.772 12.815 13.975 14.739 11.759 14.739 C 10 14.739 8.506 13.528 7.965 11.841 L 7.965 11.841 L 7.965 11.841 Z M 5.914 5.348 C 5.914 5.726 5.912 6.785 5.912 6.785 C 5.912 6.785 4.856 6.788 4.423 6.788 C 3.6 6.788 2.932 6.143 2.932 5.349 C 2.932 4.553 3.6 3.909 4.423 3.909 C 5.247 3.909 5.914 4.553 5.914 5.349 L 5.914 5.348 Z"/>
</svg>
